X: 107
T:Rolling in the Ryegrass
T:Shannon Breezes
R:Reel
M:C
L:1/8
Q:1/2=112
K:D
|A2AF DFAF|G2BG dGBG|ABAF DFAF|GBAF EFDF|
A2AF DFAF|G2BG dGBG|~A3F DFAF|GBAF E2D2||
ABde ~f3d|~g3e fedB|ABde fefg|afdf e2d2|
ABde fAdf|~g3e fedB|ABde fefg|afdf e2d2|]
